X:1450
T:Bill Nicholson's Welcome to the North Shore
R:pipe march
C:Paul S. Cranford
O:20th Century Cape Breton
D:The Lighthouse, Cranford Publications
B:The Lighthouse Collection, ISBN 0-9691181-5-5
N:http://www.cranfordpub.com
Q:288
L:1/8
M:C|
K:Amix
P:A
A<B|A2 A<c e2 A>a|f>ed<f e>dc<a|A<AA<c d2 A>d|c>BA<c B>AG<B|!
A2 A<c e2 A>a|f>ed<f e>dc<a|A<Ac>e d<gd<B|A2 A/A/A A2:|!
P:B
|:f<^g|a2 e<a f2 d<f|e2 c>e d>cB>^g|a2 e<a f2 d>f|e>dc<A B2 (3(ef^g)|
a2 e<a f2 d<f|e2 c>e d>cB<a|A2 c>e d<gd<B|A2 A/A/A A2:|!
P:C
|:e<a|A/A/A c>A e>Ac>e|f>ed>f e>dc<a|A/A/A c>A d<gd<B|c>ae<c B>AG>B|!
A/A/A c>A e>Ac>e|f>ed>f e>dc<a|A2 c>e d<gd<B|A2 A/A/A A2:|!
P:D
|:c>d|e>dc<a f>ed>f|e>dc<a d<gd<B|e>dc<a f>ed>f|e>dc<A B2 B/c/d|!
[1e>dc<a f>ed>f|e>dc>e d<gd<B|A2 c>e d<gd<B|A2 A/A/A A2:|!
[2e>dc<A d>cB<G|A>Bc<d e<ae<c|A/A/A c>e d<gd<B|A2 A/A/A A2:|!


